SVG_Azure_All/Review Access.svg

<?xml version="1.0" encoding="UTF-8" standalone="no"?>
<!-- Generated by Microsoft Visio, SVG Export Review Access.svg Page-1 -->

<svg
   xmlns:dc="http://purl.org/dc/elements/1.1/"
   xmlns:cc="http://creativecommons.org/ns#"
   xmlns:rdf="http://www.w3.org/1999/02/22-rdf-syntax-ns#"
   xmlns:svg="http://www.w3.org/2000/svg"
   xmlns="http://www.w3.org/2000/svg"
   xmlns:sodipodi="http://sodipodi.sourceforge.net/DTD/sodipodi-0.dtd"
   xmlns:inkscape="http://www.inkscape.org/namespaces/inkscape"
   width="0.70898056in"
   height="0.78736067in"
   viewBox="0 0 51.046386 56.6898"
   xml:space="preserve"
   class="st7"
   version="1.1"
   id="svg80"
   sodipodi:docname="Review Access.svg"
   style="font-size:12px;overflow:visible;color-interpolation-filters:sRGB;fill:none;fill-rule:evenodd;stroke-linecap:square;stroke-miterlimit:3"
   inkscape:version="0.92.5 (2060ec1f9f, 2020-04-08)"><metadata
   id="metadata84"><rdf:RDF><cc:Work
       rdf:about=""><dc:format>image/svg+xml</dc:format><dc:type
         rdf:resource="http://purl.org/dc/dcmitype/StillImage" /></cc:Work></rdf:RDF></metadata><sodipodi:namedview
   pagecolor="#ffffff"
   bordercolor="#666666"
   borderopacity="1"
   objecttolerance="10"
   gridtolerance="10"
   guidetolerance="10"
   inkscape:pageopacity="0"
   inkscape:pageshadow="2"
   inkscape:window-width="640"
   inkscape:window-height="480"
   id="namedview82"
   showgrid="false"
   inkscape:zoom="1.4506608"
   inkscape:cx="27.705442"
   inkscape:cy="35.983837"
   inkscape:window-x="0"
   inkscape:window-y="0"
   inkscape:window-maximized="0"
   inkscape:current-layer="svg80" />
	<style
   type="text/css"
   id="style2">
	<![CDATA[
		.st1 {fill:url(#grad0-6);stroke:none;stroke-linecap:butt;stroke-width:31.3047}
		.st2 {fill:#ffffff;fill-opacity:0.8;stroke:none;stroke-linecap:butt;stroke-width:31.3047}
		.st3 {fill:url(#grad0-12);stroke:none;stroke-linecap:butt;stroke-width:31.3047}
		.st4 {fill:#ffffff;fill-opacity:0.74;stroke:none;stroke-linecap:butt;stroke-width:10.7973}
		.st5 {fill:#7a7a7a;stroke:none;stroke-linecap:butt;stroke-width:10.7973}
		.st6 {fill:#000000;fill-opacity:0.4;stroke:none;stroke-linecap:butt;stroke-width:10.7973}
		.st7 {fill:none;fill-rule:evenodd;font-size:12px;overflow:visible;stroke-linecap:square;stroke-miterlimit:3}
	]]>
	</style>

	<defs
   id="Patterns_And_Gradients">
		<linearGradient
   id="grad0-6"
   x1="-0.015706787"
   y1="121.99884"
   x2="32.748814"
   y2="121.99884"
   gradientTransform="scale(1.2684429,0.78836817)"
   gradientUnits="userSpaceOnUse">
			<stop
   offset="0.22"
   stop-color="#32d4f5"
   stop-opacity="1"
   id="stop4" />
			<stop
   offset="0.47"
   stop-color="#31d1f3"
   stop-opacity="1"
   id="stop6" />
			<stop
   offset="0.63"
   stop-color="#2ec9eb"
   stop-opacity="1"
   id="stop8" />
			<stop
   offset="0.77"
   stop-color="#29bade"
   stop-opacity="1"
   id="stop10" />
			<stop
   offset="0.89"
   stop-color="#22a5cb"
   stop-opacity="1"
   id="stop12" />
			<stop
   offset="1"
   stop-color="#198ab3"
   stop-opacity="1"
   id="stop14" />
			<stop
   offset="1"
   stop-color="#198ab3"
   stop-opacity="1"
   id="stop16" />
		</linearGradient>
		<linearGradient
   id="grad0-12"
   x1="0"
   y1="96.897778"
   x2="23.592138"
   y2="96.897778"
   gradientTransform="scale(0.98751541,1.0126424)"
   gradientUnits="userSpaceOnUse">
			<stop
   offset="0.22"
   stop-color="#32d4f5"
   stop-opacity="1"
   id="stop19" />
			<stop
   offset="0.47"
   stop-color="#31d1f3"
   stop-opacity="1"
   id="stop21" />
			<stop
   offset="0.63"
   stop-color="#2ec9eb"
   stop-opacity="1"
   id="stop23" />
			<stop
   offset="0.77"
   stop-color="#29bade"
   stop-opacity="1"
   id="stop25" />
			<stop
   offset="0.89"
   stop-color="#22a5cb"
   stop-opacity="1"
   id="stop27" />
			<stop
   offset="1"
   stop-color="#198ab3"
   stop-opacity="1"
   id="stop29" />
			<stop
   offset="1"
   stop-color="#198ab3"
   stop-opacity="1"
   id="stop31" />
		</linearGradient>
	</defs>
	<g
   id="g78"
   transform="translate(-31.304545,-31.304501)">
		<title
   id="title35">Page-1</title>
		<g
   id="group1867-1"
   transform="translate(31.3244,-34.0157)">
			<title
   id="title37">Review Access</title>
			<g
   id="group1868-2">
				<title
   id="title39">Icon-networking-82</title>
				<g
   id="shape1869-3"
   transform="translate(0,-9.7765)">
					<title
   id="title41">path4</title>
					<path
   d="m 37.84,122.01 a 3.73479,3.64213 -90 0 0 3.7,-3.61 v -0.62 C 40.06,105.87 33.44,96.18 20.8,96.18 8.16,96.18 1.29,104.39 0,117.78 a 3.82739,3.73243 -90 0 0 3.31,4.2 h 34.53 z"
   class="st1"
   id="path43"
   inkscape:connector-curvature="0"
   style="fill:url(#grad0-6);stroke:none;stroke-width:31.30470085;stroke-linecap:butt" />
				</g>
				<g
   id="shape1870-7"
   transform="translate(14.4782,-17.956)">
					<title
   id="title46">path6</title>
					<path
   d="M 6.32,107.17 A 11.9143,11.6187 90 0 1 0,105.28 l 6.26,16.73 6.2,-16.63 a 11.8217,11.5284 90 0 1 -6.14,1.79 z"
   class="st2"
   id="path48"
   inkscape:connector-curvature="0"
   style="fill:#ffffff;fill-opacity:0.8;stroke:none;stroke-width:31.30470085;stroke-linecap:butt" />
				</g>
				<g
   id="shape1871-9"
   transform="translate(9.15046,-32.8026)">
					<title
   id="title51">circle8</title>
					<ellipse
   cx="11.6488"
   cy="110.068"
   rx="11.6488"
   ry="11.9452"
   class="st3"
   id="ellipse53"
   style="fill:url(#grad0-12);stroke:none;stroke-width:31.30470085;stroke-linecap:butt" />
				</g>
				<g
   id="shape1872-13"
   transform="translate(26.0977,-7.31915)">
					<title
   id="title56">circle6</title>
					<ellipse
   cx="8.95438"
   cy="112.831"
   rx="8.95438"
   ry="9.18221"
   class="st4"
   id="ellipse58"
   style="fill:#ffffff;fill-opacity:0.73999999;stroke:none;stroke-width:10.79730034;stroke-linecap:butt" />
				</g>
				<g
   id="shape1873-15"
   transform="translate(41.8865)">
					<title
   id="title61">path10</title>
					<path
   d="m 7.36,122.01 c 0.48,0 0.92,-0.18 1.25,-0.52 0.34,-0.34 0.52,-0.8 0.53,-1.28 a 1.80344,1.75869 -90 0 0 -0.52,-1.29 l -6.12,-6.28 -2.5,2.57 6.11,6.27 c 0.33,0.34 0.78,0.53 1.25,0.53 z"
   class="st5"
   id="path63"
   inkscape:connector-curvature="0"
   style="fill:#7a7a7a;stroke:none;stroke-width:10.79730034;stroke-linecap:butt" />
				</g>
				<g
   id="shape1874-17"
   transform="translate(42.4011,-4.52985)">
					<title
   id="title66">path12</title>
					<path
   d="m 1.7,122.01 a 6.04163,5.89173 -90 0 0 2.49,-2.55 L 4.2,119.44 2.5,117.7 0,120.27 Z"
   class="st6"
   id="path68"
   inkscape:connector-curvature="0"
   style="fill:#000000;fill-opacity:0.4;stroke:none;stroke-width:10.79730034;stroke-linecap:butt" />
				</g>
				<g
   id="shape1875-19"
   transform="translate(22.6977,-3.83257)">
					<title
   id="title71">path14</title>
					<path
   d="M 12.35,96.68 C 5.53,96.68 0,102.35 0,109.34 c 0,7 5.53,12.67 12.35,12.67 6.83,0 12.36,-5.67 12.36,-12.67 0,-6.99 -5.53,-12.66 -12.36,-12.66 z m 0,21.85 c -4.93,0 -8.95,-4.12 -8.95,-9.19 0,-5.06 4.02,-9.18 8.95,-9.18 4.94,0 8.96,4.12 8.96,9.18 0,5.07 -4.02,9.19 -8.96,9.19 z"
   class="st5"
   id="path73"
   inkscape:connector-curvature="0"
   style="fill:#7a7a7a;stroke:none;stroke-width:10.79730034;stroke-linecap:butt" />
				</g>
			</g>
		</g>
	</g>
</svg>

<?xml version="1.0" encoding="UTF-8" standalone="no"?>
<!DOCTYPE svg PUBLIC "-//W3C//DTD SVG 1.1//EN" "http://www.w3.org/Graphics/SVG/1.1/DTD/svg11.dtd">
<!-- Generated by Microsoft Visio, SVG Export Review Access.svg Page-1 -->
<svg xmlns="http://www.w3.org/2000/svg" xmlns:xlink="http://www.w3.org/1999/xlink" xmlns:ev="http://www.w3.org/2001/xml-events"
		width="1.44677in" height="1.69463in" viewBox="0 0 104.167 122.013" xml:space="preserve" color-interpolation-filters="sRGB"
		class="st7">
	<style type="text/css">
	<![CDATA[
		.st1 {fill:url(#grad0-6);stroke:none;stroke-linecap:butt;stroke-width:31.3047}
		.st2 {fill:#ffffff;fill-opacity:0.8;stroke:none;stroke-linecap:butt;stroke-width:31.3047}
		.st3 {fill:url(#grad0-12);stroke:none;stroke-linecap:butt;stroke-width:31.3047}
		.st4 {fill:#ffffff;fill-opacity:0.74;stroke:none;stroke-linecap:butt;stroke-width:10.7973}
		.st5 {fill:#7a7a7a;stroke:none;stroke-linecap:butt;stroke-width:10.7973}
		.st6 {fill:#000000;fill-opacity:0.4;stroke:none;stroke-linecap:butt;stroke-width:10.7973}
		.st7 {fill:none;fill-rule:evenodd;font-size:12px;overflow:visible;stroke-linecap:square;stroke-miterlimit:3}
	]]>
	</style>

	<defs id="Patterns_And_Gradients">
		<linearGradient id="grad0-6" x1="0" y1="0" x2="1" y2="0" gradientTransform="rotate(90 0.5 0.5)">
			<stop offset="0.22" stop-color="#32d4f5" stop-opacity="1"/>
			<stop offset="0.47" stop-color="#31d1f3" stop-opacity="1"/>
			<stop offset="0.63" stop-color="#2ec9eb" stop-opacity="1"/>
			<stop offset="0.77" stop-color="#29bade" stop-opacity="1"/>
			<stop offset="0.89" stop-color="#22a5cb" stop-opacity="1"/>
			<stop offset="1" stop-color="#198ab3" stop-opacity="1"/>
			<stop offset="1" stop-color="#198ab3" stop-opacity="1"/>
		</linearGradient>
		<linearGradient id="grad0-12" x1="0" y1="0" x2="1" y2="0" gradientTransform="rotate(85.386704019704 0.5 0.5)">
			<stop offset="0.22" stop-color="#32d4f5" stop-opacity="1"/>
			<stop offset="0.47" stop-color="#31d1f3" stop-opacity="1"/>
			<stop offset="0.63" stop-color="#2ec9eb" stop-opacity="1"/>
			<stop offset="0.77" stop-color="#29bade" stop-opacity="1"/>
			<stop offset="0.89" stop-color="#22a5cb" stop-opacity="1"/>
			<stop offset="1" stop-color="#198ab3" stop-opacity="1"/>
			<stop offset="1" stop-color="#198ab3" stop-opacity="1"/>
		</linearGradient>
	</defs>
	<g>
		<title>Page-1</title>
		<g id="group1852-1" transform="translate(31.3244,-34.0157)">
			<title>Review Access</title>
			<g id="group1853-2">
				<title>Icon-networking-82</title>
				<g id="shape1854-3" transform="translate(-2.51799E-13,-9.7765)">
					<title>path4</title>
					<path d="M37.84 122.01 A3.73479 3.64213 -90 0 0 41.54 118.4 L41.54 117.78 C40.06 105.87 33.44 96.18 20.8 96.18
								 C8.16 96.18 1.29 104.39 0 117.78 A3.82739 3.73243 -90 0 0 3.31 121.98 L37.84 121.98 L37.84 122.01
								 Z" class="st1"/>
				</g>
				<g id="shape1855-7" transform="translate(14.4782,-17.956)">
					<title>path6</title>
					<path d="M6.32 107.17 A11.9143 11.6187 90 0 1 0 105.28 L6.26 122.01 L12.46 105.38 A11.8217 11.5284 90 0 1 6.32
								 107.17 Z" class="st2"/>
				</g>
				<g id="shape1856-9" transform="translate(9.15046,-32.8026)">
					<title>circle8</title>
					<ellipse cx="11.6488" cy="110.068" rx="11.6488" ry="11.9452" class="st3"/>
				</g>
				<g id="shape1857-13" transform="translate(26.0977,-7.31915)">
					<title>circle6</title>
					<ellipse cx="8.95438" cy="112.831" rx="8.95438" ry="9.18221" class="st4"/>
				</g>
				<g id="shape1858-15" transform="translate(41.8865,0)">
					<title>path10</title>
					<path d="M7.36 122.01 C7.84 122.01 8.28 121.83 8.61 121.49 C8.95 121.15 9.13 120.69 9.14 120.21 A1.80344 1.75869
								 -90 0 0 8.62 118.92 L2.5 112.64 L0 115.21 L6.11 121.48 C6.44 121.82 6.89 122.01 7.36 122.01 Z"
							class="st5"/>
				</g>
				<g id="shape1859-17" transform="translate(42.4011,-4.52985)">
					<title>path12</title>
					<path d="M1.7 122.01 A6.04163 5.89173 -90 0 0 4.19 119.46 L4.2 119.44 L2.5 117.7 L0 120.27 L1.7 122.01 L1.7 122.01
								 Z" class="st6"/>
				</g>
				<g id="shape1860-19" transform="translate(22.6977,-3.83257)">
					<title>path14</title>
					<path d="M12.35 96.68 C5.53 96.68 0 102.35 0 109.34 C0 116.34 5.53 122.01 12.35 122.01 C19.18 122.01 24.71 116.34
								 24.71 109.34 C24.71 102.35 19.18 96.68 12.35 96.68 ZM12.35 118.53 C7.42 118.53 3.4 114.41 3.4 109.34
								 C3.4 104.28 7.42 100.16 12.35 100.16 C17.29 100.16 21.31 104.28 21.31 109.34 C21.31 114.41 17.29
								 118.53 12.35 118.53 Z" class="st5"/>
				</g>
			</g>
		</g>
	</g>
</svg>
